trafik_levhalari/bilgi/25.svg

<?xml version="1.0" encoding="UTF-8" standalone="no"?>
<svg
   xmlns:dc="http://purl.org/dc/elements/1.1/"
   xmlns:cc="http://creativecommons.org/ns#"
   xmlns:rdf="http://www.w3.org/1999/02/22-rdf-syntax-ns#"
   xmlns:svg="http://www.w3.org/2000/svg"
   xmlns="http://www.w3.org/2000/svg"
   xmlns:sodipodi="http://sodipodi.sourceforge.net/DTD/sodipodi-0.dtd"
   xmlns:inkscape="http://www.inkscape.org/namespaces/inkscape"
   sodipodi:docname="B20.svg"
   inkscape:version="1.0 (4035a4fb49, 2020-05-01)"
   id="svg15567"
   version="1.1"
   viewBox="0 0 105.83299 105.83299"
   height="105.83301mm"
   width="105.83299mm">
  <defs
     id="defs15561" />
  <sodipodi:namedview
     inkscape:window-maximized="1"
     inkscape:window-y="-9"
     inkscape:window-x="-9"
     inkscape:window-height="1001"
     inkscape:window-width="1920"
     showgrid="false"
     inkscape:document-rotation="0"
     inkscape:current-layer="layer1"
     inkscape:document-units="mm"
     inkscape:cy="530.11631"
     inkscape:cx="106.07974"
     inkscape:zoom="0.49497475"
     inkscape:pageshadow="2"
     inkscape:pageopacity="0.0"
     borderopacity="1.0"
     bordercolor="#666666"
     pagecolor="#ffffff"
     id="base" />
  <metadata
     id="metadata15564">
    <rdf:RDF>
      <cc:Work
         rdf:about="">
        <dc:format>image/svg+xml</dc:format>
        <dc:type
           rdf:resource="http://purl.org/dc/dcmitype/StillImage" />
        <dc:title />
      </cc:Work>
    </rdf:RDF>
  </metadata>
  <g
     transform="translate(-17.498496,136.9988)"
     id="layer1"
     inkscape:groupmode="layer"
     inkscape:label="Layer 1">
    <path
       id="rect3034"
       style="opacity:1;fill:#00408c;fill-opacity:1;fill-rule:evenodd;stroke:none;stroke-width:0.635;stroke-linecap:square;stroke-linejoin:round;paint-order:stroke fill markers"
       d="m 24.178057,-136.9988 h 92.473893 c 3.70047,0 6.67954,2.97908 6.67954,6.67957 v 92.473873 c 0,3.700474 -2.97907,6.679563 -6.67954,6.679563 H 24.178057 c -3.700468,0 -6.679561,-2.979089 -6.679561,-6.679563 v -92.473873 c 0,-3.70049 2.979093,-6.67957 6.679561,-6.67957 z" />
    <path
       id="rect3036"
       style="opacity:1;fill:#ffffff;fill-opacity:1;fill-rule:evenodd;stroke:none;stroke-width:0.635;stroke-linecap:square;stroke-linejoin:round;paint-order:stroke fill markers"
       d="m 24.129427,-135.23387 c -2.696607,0 -4.867471,2.17085 -4.867471,4.86747 v 92.569504 c 0,2.696614 2.170864,4.86748 4.867471,4.86748 h 92.569513 c 2.69661,0 4.86747,-2.170866 4.86747,-4.86748 V -130.3664 c 0,-2.69662 -2.17086,-4.86747 -4.86747,-4.86747 z m 6e-4,1.76286 h 92.568613 c 1.71966,0 3.10459,1.38495 3.10459,3.10461 v 92.568599 c 0,1.719661 -1.38493,3.103692 -3.10459,3.103692 H 24.130027 c -1.719663,0 -3.103694,-1.384031 -3.103694,-3.103692 V -130.3664 c 0,-1.71966 1.384031,-3.10461 3.103694,-3.10461 z" />
    <path
       id="rect3045"
       style="opacity:1;fill:#ffffff;fill-opacity:1;fill-rule:evenodd;stroke:none;stroke-width:0.635;stroke-linecap:square;stroke-linejoin:round;paint-order:stroke fill markers"
       d="m 42.179192,-119.35716 v 70.545555 H 54.891129 V -77.01835 h 31.026054 v 28.206745 H 98.630037 V -119.35716 H 85.917183 v 28.225874 H 54.891129 v -28.225874 z" />
  </g>
</svg>

<svg width="105.83mm" height="105.83mm" version="1.1" viewBox="0 0 105.83 105.83" xmlns="http://www.w3.org/2000/svg"><g transform="translate(-17.498 137)" fill-rule="evenodd"><path d="m24.178-137h92.474c3.7005 0 6.6795 2.9791 6.6795 6.6796v92.474c0 3.7005-2.9791 6.6796-6.6795 6.6796h-92.474c-3.7005 0-6.6796-2.9791-6.6796-6.6796v-92.474c0-3.7005 2.9791-6.6796 6.6796-6.6796z" fill="#00408c" style="paint-order:stroke fill markers"/><path d="m24.129-135.23c-2.6966 0-4.8675 2.1708-4.8675 4.8675v92.57c0 2.6966 2.1709 4.8675 4.8675 4.8675h92.57c2.6966 0 4.8675-2.1709 4.8675-4.8675v-92.57c0-2.6966-2.1709-4.8675-4.8675-4.8675zm6e-4 1.7629h92.569c1.7197 0 3.1046 1.385 3.1046 3.1046v92.569c0 1.7197-1.3849 3.1037-3.1046 3.1037h-92.569c-1.7197 0-3.1037-1.384-3.1037-3.1037v-92.569c0-1.7197 1.384-3.1046 3.1037-3.1046z" fill="#fff" style="paint-order:stroke fill markers"/><path d="m42.179-119.36v70.546h12.712v-28.207h31.026v28.207h12.713v-70.546h-12.713v28.226h-31.026v-28.226z" fill="#fff" style="paint-order:stroke fill markers"/></g></svg>
